X:1
T:Ave Maria
T:Ave Maria
T:G.P. da  Palestrina (1525-1594)
C:G.P. da  Palestrina (1525-1594)
%%score [ 1 2 3 4 ]
L:1/8
Q:1/4=120
M:4/4
K:F
V:1 treble-8 nm="Tenor I"
V:2 treble-8 nm="Tenor II"
V:3 bass nm="Bass I"
V:4 bass nm="Bass II"
V:1
 z8 | z8 | z8 | z8 | B4 F4 | G4 (d4 | _e4) (d4- | d2 cB c4 | B3 A/G/) F4 | z8 | f4 _e2 d2 | %11
w: ||||A- ve|Ma- ri-|* a|_ _ _ _|||gra- ti- a|
 _e4 d4- | d4 z4 | z4 d4- | d4 c2 B2 | A4 (GABc) | B8 | z8 | z4 c4- | c2 c2 d4 | c4 B4 | %21
w: ple- na,||Do-|* mi- nus|te- cum, _ _ _|_||be-|* ne- di-|cta tu|
 z2 c2 d4- | d2 c2 B4 | A4 G4 | z4 z2 d2- | d2 c2 d4 | B4 A4 | z8 | z8 | z8 | z2 d4 c2 | %31
w: in mu-|* li- e-|ri- bus,|et|_ be- ne-|di- ctus||||fru- ctus|
 B2 A2 G2 F2 | B4 !fermata!A4 | z4 d4 | d2 d2 (d4- | d2 cB c4) | A4 z4 | z8 | z2 B2 c2 B2 | %39
w: ven- tris tu- i,|Je- sus.|San-|cta Ma- ri-||a||Re- gi- na|
 c4 d4- | d4 z2 B2- | B2 A2 B4 | G4 A4 | z8 | z4 z2 B2 | c2 B2 c4 | d4 z2 f2 | f2 f2 f4 | f4 d4 | %49
w: coe- li|_ dul-|* cis et|pi- a||o|Ma- ter De-|i o-|ra pro no-|bis pec-|
 d4 d3 d | d8 | z8 | z8 | z8 | d4 d2 d2 | d4 c4 | B2 (GABc d2- | d2) B2 A4 | G4 z2 F2 | f2 f2 f4 | %60
w: ca- to- ri-|bus||||ut cum e-|le- ctis|te vi- * * * *|* de- a-|mus ut|cum e- le-|
 f4 (d3 c | BA G2) d3 d | d8 | !fermata!d8 |] %64
w: ctis te _|_ _ _ vi- de-|a-|mus.|
V:2
 z8 | z4 B4 | F4 B4 | d4 c2 (d2- | dc B4 A2- | AG G4) ^F2 | (G3 A B2 (A2-) | AG G4 ^F2) | %8
w: |A-|ve Ma-|ri- a A-||* * * ve|Ma- * * ri-||
 G2 (D3 E FG | A2) F2 G2 A2 | B2 F2 G2 B2 | (A2 G4) ^FE | ^F4 z2 d2- | d2 c2 B4 | A4 G4 | %15
w: a gra- * * *|* ti- a ple-|na, gra- ti- a|ple- * na, *|* Do-|* mi- nus|te- cum,|
 d4 c2 B2 | A4 B2 G2- | G2 G2 A4- | A2 B2 (A2 GF | G3 A) B4 | z2 c2 d4- | d2 c2 B4 | A4 G4 | %23
w: Do- mi- nus|te- cum, be-|* ne- di-|* cta tu _ _|_ _ _|in mu-|* li- e-|ri- bus,|
 D4 z2 d2- | d2 c2 d4 | (B2 AGFE F2) | G4 z2 d2- | d2 c2 B2 A2 | G2 F2 B4 | A4 B3 B | c2 F2 G4 | %31
w: * et|* be- ne-|di- * * * * *|ctus fru-|* ctus ven- tris|tu- i, Je-|sus, fru- ctus|ven- tris tu-|
 d4 d4- | d4 !fermata!d4 | z4 A4 | B2 A2 (G2 FE | F4) C4 | z2 F2 G2 F2 | G4 A4 | (B3 A/G/ F4- | %39
w: i, Je-|* sus.|San-|cta Ma- ri- * *|* a|Re- gi- na|coe- *|li _ _ _|
 F4) z2 B2- | B2 A2 B2 (GA | Bc d4) (B2- | B2 AG ^F2 F2) | G2 ^F2 G4 | A4 (B3 A/G/ | F8) | %46
w: _ dul-|* cis et pi- *|* * * a|* * * * o|Ma- ter De-|* i * *||
 z2 d2 (dcBA | B2) B2 B4 | A4 z2 G2- | G2 F2 B3 B | A4 z2 A2 | A2 A2 A4 | G4 F2 (DE | FD G4) ^F2 | %54
w: o- ra * * *|* pro no-|bis pec-|* ca- to- ri-|bus ut|cum e- le-|ctis te vi- *|* * * de-|
 G4 G4 | z2 D2 _EE C2 | D2 (d3 c B2) | A2 G4 ^F2 | G2 d2 d2 d2 | B8 | A4 (GABc) | d2 B2 A2 (G2- | %62
w: a- mus|ut cum e- le-|ctis te _ _|vi- de- a-|mus ut cum e-|le-|ctis te * * *|* vi- de- a-|
 G2 ^FE F4) | !fermata!G8 |] %64
w: |mus.|
V:3
 B,4 F,4 | G,4 D4 | C2 (D3 C B,2- | B,A,F,G, A,G,F,_E, | D,4) D,2 D2 | (C2 B,4 A,2- | %6
w: A- ve|Ma- ri-|a A- * *||* ve Ma-|ri- * *|
 A,G, G,4 F,2 | D,2 _E,4) (D,C,) | D,4 D4 | C2 B,2 C4 | D2 A,2 C2 D2 | C4 A,2 A,2- | %12
w: |* * a _|_ gra-|ti- a ple-|na, gra- ti- a|ple- na, Do-|
 A,2 B,2 A,2 (G,2- | G,^F,/E,/ F,2) G,4 | D,4 z4 | D,4 E,2 G,2- | G,2 ^F,2 G,4 | E,6 E,2 | %18
w: * mi- nus te-|* * * * cum,||Do- mi- nus|_ te- cum,|be- ne-|
 F,4 E,2 (F,2- | F,E,/D,/ E,2 F,2) (B,2- | B,A, A,2) G,2 F,2 | B,2 A,2 (G,2 F,E, | F,2) A,2 D3 D | %23
w: di- cta tu|_ _ _ _ _ in|_ _ _ mu- li-|e- ri- bus, _ _|_ in mu- li-|
 D2 D2 (B,3 A, | G,2) G,4 ^F,2 | G,2 E,2 D,4 | z2 G,4 F,2 | B,2 A,2 G,2 F,2 | B,2 A,2 G,4 | %29
w: e- ri- bus, _|_ et be-|ne- di- ctus|fru- ctus|ven- tris tu- i,|Je- * *|
 D,4 z2 F,2 | G,2 (B,3 A, G,2- | G,2) F,2 B,2 A,2 | G,4 !fermata!^F,4 | z4 ^F,4 | G,2 A,2 (B,4 | %35
w: sus, fru-|ctus ven- * *|* tris tu- i,|Je- sus.|San-|cta Ma- ri-|
 A,3 G,/F,/ G,4) | F,4 B,4 | C2 B,2 C4 | D4 z2 B,2- | B,2 A,2 B,2 (G,2- | G,^F,/E,/ F,2 G,A,B,C | %41
w: |a Re-|gi- na coe-|li dul-|* cis et pi-|* * * * a * * *|
 D4) z2 D2- | DC C2 D4 | B,2 B,2 C2 B,2 | C4 D4 | z2 (B,3 A,/G,/ A,2) | B,4 z2 D2 | D2 D2 D4 | %48
w: * dul-|* cis et pi-|a o Ma- ter|De- i|De- * * *|i o-|ra pro no-|
 C4 B,4 | A,4 G,3 G, | ^F,8- | F,4 z4 | D4 D2 D2 | D4 C4 | B,2 (G,A,B,G, B,2- | B,A, G,4) ^F,2 | %56
w: bis pec-|ca- to- ri-|bus||ut cum e-|le- ctis|te vi- * * * *|* * * de-|
 G,4 G,2 G,2 | D2 D2 D4 | =B,4 z2 D2 | D2 D2 D4 | C4 B,2 (G,A, | B,C D4) B,2 | A,8 | %63
w: a- mus te|vi- de- a-|mus ut|cum e- le-|ctis te vi- *|* * * de-|a-|
 !fermata!=B,8 |] %64
w: mus.|
V:4
 z8 | z8 | z8 | B,,4 F,,4 | G,,4 (D,4 | _E,4) D,4 | C,4 D,3 C, | B,,2 C,2 A,,4 | %8
w: |||A- ve|Ma- ri-|* a|A- ve _|Ma- ri- a|
 G,,2 (G,,A,, B,,C,D,E,) | F,2 D,2 E,2 F,2 | B,,2 D,2 C,2 B,,2 | C,4 D,4 | D,4 C,2 B,,2 | %13
w: gra- * * * * * *|* ti- a ple-|na, gra- ti- a|ple- na,|Do- mi- nus|
 A,,4 G,,2 G,2- | G,2 F,2 E,2 (G,2- | G,^F, F,E,/F,/ G,4 | D,4) G,,4 | C,6 C,2 | D,4 C,4- | %19
w: te- cum, Do-|* mi- nus te-||* cum,|be- ne-|di- cta|
 C,4 B,,4 | F,,4 (B,,3 C, | D,E, F,2) B,,4 | F,,2 F,,2 G,,2 G,2- | G,2 ^F,2 G,4 | _E,4 D,4 | %25
w: _ tu|in mu- *|* * * li-|e- ri- bus, et|_ be- ne-|di- ctus|
 G,,2 A,,2 B,,4 | G,,4 D,4 | z8 | z4 z2 G,2- | G,2 F,2 _E,2 D,2 | C,2 B,,2 _E,4 | %31
w: et be- ne-|di- ctus||fru-|* ctus ven- tris|tu- i, Je-|
 (D,3 C, B,,G,, D,2) | G,,4 !fermata!D,4 | z4 D,4 | G,,2 ^F,,2 (G,,A,,B,,C, | E,F, F,4 E,2) | %36
w: sus, _ _ _ _|Je- sus.|San-|cta Ma- ri- * * *||
 F,2 D,2 _E,2 D,2 | _E,3 D, C,4 | B,,2 B,,2 A,,2 B,,2 | F,,4 B,,3 C, | D,4 z2 G,2- | G,2 ^F,2 G,4 | %42
w: a Re- gi- na|coe- * *|li Re- gi- na|coe- li _|_ dul-|* cis et|
 _E,4 D,2 D,2 | _E,2 D,2 (E,3 D, | C,4 B,,2) G,,2 | A,,2 B,,2 F,,4 | B,,4 z2 B,,2 | %47
w: pi- a o|Ma- ter De- *|* i o|Ma- ter De-|i o-|
 B,,2 B,,2 B,,4 | F,4 G,4 | D,4 G,,3 G,, | D,2 D,2 D,2 D,2 | D,4 C,4 | B,,2 (G,,A,,B,,C, D,2- | %53
w: ra pro no-|bis pec-|ca- to- ri-|bus ut cum e-|le- ctis|te vi- * * * *|
 D,2) B,,2 A,,4 | G,,4 G,,4 | B,,2 B,,2 A,,4 | G,,4 z2 G,2 | ^F,2 G,2 D,4 | G,,4 z2 B,,2 | %59
w: * de- a-|mus te|vi- de- a-|mus te|vi- de- a-|mus ut|
 B,,2 B,,2 B,,4 | F,4 G,4- | G,4 ^F,2 G,2 | D,8 | !fermata!G,,8 |] %64
w: cum e- le-|ctis te|_ vi- de-|a-|mus.|

